site/public/static/about-principles-06.svg

<svg width="1344" height="759" viewBox="0 0 1344 759" xmlns="http://www.w3.org/2000/svg">
  <g clip-path="url(#Number=06__clip0)">
    <path d="M0 0h1344v759H0V0z" fill="#213A82"/>
    <path fill-rule="evenodd" clip-rule="evenodd" d="M361.098-277.844C79.883-226.269 10.501-84.279 8.478-80.996c-59.104 95.919-141.921 227.652-88.67 371.112 53.25 143.46 278.421 250.81 283.439 252.799 99.308 39.374 226.358-75.57 350.682-108.922 133.575-35.834 245.093-70.088 309.338-168.853 64.245-98.765 18.284-249.539-12.436-364.362-29.945-111.955-208.517-230.196-489.733-178.622z" fill="#87A4FC"/>
    <path fill-rule="evenodd" clip-rule="evenodd" d="M551.003 307.318l.031-.046c28.712-42.425 74.521-62.472 133.651-62.472 59.1 0 104.774 20.033 133.121 62.517 27.411 40.529 40.239 94.637 40.239 160.683 0 66.748-12.811 121.248-40.239 161.803-28.347 42.484-74.021 62.517-133.121 62.517-59.13 0-104.939-20.047-133.651-62.472l-.031-.047-.031-.046c-27.028-40.542-39.647-95.02-39.647-161.755 0-66.033 12.636-120.118 39.647-160.635l.031-.047zM804.525 620.88c25.013-36.96 37.52-87.92 37.52-152.88 0-64.213-12.507-114.8-37.52-151.76-24.64-36.96-64.587-55.44-119.84-55.44s-95.387 18.48-120.4 55.44c-24.64 36.96-36.96 87.547-36.96 151.76 0 64.96 12.32 115.92 36.96 152.88 25.013 36.96 65.147 55.44 120.4 55.44s95.2-18.48 119.84-55.44zm-83.717-233.69l-.019-.048c-2.97-7.424-7.143-12.22-12.32-15.349-5.357-3.237-12.97-5.393-23.784-5.393-10.814 0-18.427 2.156-23.784 5.393-5.177 3.129-9.351 7.925-12.32 15.349l-.019.048-.02.047c-7.06 17.329-11.137 43.834-11.137 80.763 0 24.839 1.467 44.907 4.228 60.45 2.562 14.065 7.465 24.639 14.111 32.492 5.468 5.776 14.228 9.778 28.941 9.778 14.934 0 23.351-4.113 28.361-9.75l.012-.013.012-.013c7.018-7.861 12.104-18.423 14.667-32.494 2.761-15.542 4.228-35.611 4.228-60.45 0-36.929-4.077-63.434-11.138-80.763l-.019-.047zm22.677 144.09c-2.987 16.427-9.147 29.867-18.48 40.32-8.96 10.08-22.4 15.12-40.32 15.12s-31.547-5.04-40.88-15.12c-8.96-10.453-14.933-23.893-17.92-40.32-2.987-16.8-4.48-37.893-4.48-63.28 0-37.707 4.107-66.64 12.32-86.8 8.213-20.533 25.2-30.8 50.96-30.8s42.747 10.267 50.96 30.8c8.213 20.16 12.32 49.093 12.32 86.8 0 25.387-1.493 46.48-4.48 63.28zm338.405-135.76l-2.73-12.619c-2.56-11.824-6.61-18.566-10.75-22.288l-.16-.145-.15-.148c-3.6-3.416-9.76-6.24-20.9-6.24-8.26 0-14.4 1.789-19.11 4.661-4.69 2.86-8.95 7.399-12.5 14.494l-.03.059-.03.057c-4.64 9.096-8.27 22.374-10.46 40.347a116.25 116.25 0 019.91-5.438l.07-.033.07-.033c17.99-8.565 37.53-12.754 58.4-12.754 40.25 0 73.97 12.883 99.46 39.642 26.02 26.911 38.06 63.63 38.06 107.958 0 29.443-6.06 56.019-18.7 79.241-12.36 23.386-30.7 41.634-54.57 54.626-23.7 13.109-51.29 19.333-82.17 19.333-60.799 0-107.08-19.151-133.411-61.28l-.019-.032-.02-.031c-24.63-39.819-35.993-95.14-35.993-164.097 0-72.133 11.854-128.663 38.079-166.96l.01-.015.011-.016c27.606-40.115 71.316-59.009 127.423-59.009 30.03 0 56.47 5.995 78.51 18.916 21.7 12.136 38.48 28.544 49.74 49.271 11.2 19.95 17.79 41.723 19.85 65.135l1.52 17.398h-119.41zm84.03-74.8c-9.71-17.92-24.27-32.293-43.68-43.12-19.04-11.2-42.56-16.8-70.56-16.8-52.269 0-90.349 17.36-114.243 52.08-23.52 34.347-35.28 86.987-35.28 157.92 0 67.573 11.2 119.467 33.6 155.68 22.4 35.84 62.347 53.76 119.843 53.76 28.74 0 53.57-5.787 74.48-17.36 21.28-11.573 37.33-27.627 48.16-48.16 11.2-20.533 16.8-44.427 16.8-71.68 0-41.44-11.2-73.733-33.6-96.88-22.03-23.147-51.34-34.72-87.92-34.72-18.67 0-35.84 3.733-51.52 11.2-6.97 3.401-13.21 7.383-18.71 11.945-6.576 5.455-12.1 11.74-16.573 18.855.088-9.397.424-18.194 1.008-26.392 1.897-26.655 6.415-46.978 13.555-60.968 9.33-18.667 24.64-28 45.92-28 13.81 0 24.45 3.547 31.92 10.64 7.46 6.72 12.69 16.987 15.68 30.8h89.04a156.756 156.756 0 00-2.24-16c-2.95-15.197-8.18-29.464-15.68-42.8zm-145.01 192.804l-.02.011c-6.23 5.562-10.33 14.161-10.33 28.385 0 14.905 3.94 24.464 9.98 30.793 6.29 6.234 15.92 10.327 31.14 10.327 13.1 0 21.43-3.75 27.1-9.65l.01-.008c6.22-6.453 10.09-15.754 10.09-29.782 0-14.674-3.84-24.2-9.74-30.57-5.52-5.957-14.18-9.99-28.58-9.99-12.56 0-22.06 3.679-29.64 10.473l-.01.011zm-10.67-11.924c10.82-9.707 24.26-14.56 40.32-14.56 17.54 0 30.98 5.04 40.32 15.12 9.33 10.08 14 23.893 14 41.44 0 17.173-4.86 30.8-14.56 40.88-9.34 9.707-22.22 14.56-38.64 14.56-18.3 0-32.48-5.04-42.56-15.12-9.709-10.08-14.563-24.08-14.563-42 0-17.547 5.227-30.987 15.683-40.32z" fill="#fff"/>
    <path fill-rule="evenodd" clip-rule="evenodd" d="M-294.721-281.015c-52.482 10.07-110.453 54.709-151.689 132.054-41.126 77.138-65.225 186.253-50.11 323.617 15.129 137.506 55.685 224.969 92.431 278.139 34.477 49.888 65.77 69.885 70.677 73.02.315.202.522.334.613.399l2.029 1.462c89.749 64.629 208.202 149.928 346.244 109.691 69.251-20.186 133.88-81.901 182.004-140.455 23.919-29.102 43.483-57.077 57.209-78.072 6.86-10.493 12.252-19.228 15.99-25.47a441.357 441.357 0 004.335-7.385c.986-1.724 1.443-2.57 1.516-2.707l.011-.02c20.995-43.543 8.027-96.871-15.117-157.179-6.331-16.497-13.128-32.831-20.037-49.43-5.812-13.963-11.701-28.114-17.458-42.71-12.352-31.322-23.464-63.24-29.548-94.824-25.64-133.105-50.876-240.854-139.744-308.203-43.647-33.078-101.815-41.914-164.329-39.344-55.694 2.289-113.627 13.552-166.114 23.756a8329.932 8329.932 0 01-18.913 3.661zm-43.367 813.321c-10.303-6.598-136.765-87.579-166.384-356.775-30.53-277.466 97.122-443.082 208.243-464.403 6.197-1.189 12.501-2.415 18.896-3.658 111.218-21.628 250.104-48.636 336.8 17.066 91.68 69.481 117.227 180.479 142.768 313.066 8.645 44.88 27.773 90.865 46.438 135.736 32.659 78.513 63.897 153.611 35.072 213.395-2.288 4.747-122.598 216.504-266.032 258.314-141.815 41.337-263.151-46.053-352.151-110.154l-3.036-2.186a18.15 18.15 0 00-.614-.401z" fill="#AEBFFF"/>
  </g>
  <defs>
    <clipPath id="Number=06__clip0">
      <path d="M0 0h1344v759H0V0z" fill="#fff"/>
    </clipPath>
  </defs>
</svg>

<svg width="1344" height="759" viewBox="0 0 1344 759" fill="none" xmlns="http://www.w3.org/2000/svg">
<g clip-path="url(#clip0)">
<path d="M0 0H1344V759H0V0Z" fill="#3358CC"/>
<path fill-rule="evenodd" clip-rule="evenodd" d="M361.098 -277.843C79.8827 -226.269 10.5014 -84.2784 8.47845 -80.9955C-50.6264 14.9232 -133.443 146.657 -80.1921 290.116C-26.9413 433.576 198.229 540.926 203.247 542.916C302.555 582.29 429.605 467.345 553.929 433.993C687.504 398.16 799.022 363.905 863.267 265.14C927.512 166.375 881.551 15.6014 850.831 -99.2223C820.886 -211.177 642.314 -329.418 361.098 -277.843Z" fill="#87A4FC"/>
<path fill-rule="evenodd" clip-rule="evenodd" d="M551.003 307.318L551.034 307.272C579.746 264.847 625.555 244.8 684.685 244.8C743.785 244.8 789.459 264.833 817.806 307.317C845.217 347.846 858.045 401.954 858.045 468C858.045 534.747 845.234 589.248 817.806 629.803C789.459 672.287 743.785 692.32 684.685 692.32C625.555 692.32 579.746 672.273 551.034 629.848L551.003 629.801L550.972 629.755C523.944 589.213 511.325 534.735 511.325 468C511.325 401.967 523.961 347.881 550.972 307.365L551.003 307.318ZM804.525 620.88C829.538 583.92 842.045 532.96 842.045 468C842.045 403.786 829.538 353.2 804.525 316.24C779.885 279.28 739.938 260.8 684.685 260.8C629.432 260.8 589.298 279.28 564.285 316.24C539.645 353.2 527.325 403.786 527.325 468C527.325 532.96 539.645 583.92 564.285 620.88C589.298 657.84 629.432 676.32 684.685 676.32C739.938 676.32 779.885 657.84 804.525 620.88ZM720.808 387.189L720.789 387.142C717.819 379.717 713.646 374.922 708.469 371.793C703.112 368.556 695.499 366.4 684.685 366.4C673.871 366.4 666.258 368.556 660.901 371.793C655.724 374.922 651.55 379.717 648.581 387.142L648.562 387.189L648.542 387.237C641.482 404.566 637.405 431.071 637.405 468C637.405 492.839 638.872 512.907 641.633 528.45C644.195 542.515 649.098 553.089 655.744 560.942C661.212 566.718 669.972 570.72 684.685 570.72C699.619 570.72 708.036 566.606 713.046 560.97L713.058 560.957L713.07 560.944C720.088 553.083 725.174 542.521 727.737 528.45C730.498 512.907 731.965 492.839 731.965 468C731.965 431.071 727.888 404.566 720.827 387.237L720.808 387.189ZM743.485 531.28C740.498 547.707 734.338 561.147 725.005 571.6C716.045 581.68 702.605 586.72 684.685 586.72C666.765 586.72 653.138 581.68 643.805 571.6C634.845 561.147 628.872 547.707 625.885 531.28C622.898 514.48 621.405 493.387 621.405 468C621.405 430.293 625.512 401.36 633.725 381.2C641.938 360.667 658.925 350.4 684.685 350.4C710.445 350.4 727.432 360.667 735.645 381.2C743.858 401.36 747.965 430.293 747.965 468C747.965 493.387 746.472 514.48 743.485 531.28ZM1081.89 395.52L1079.16 382.901C1076.6 371.077 1072.55 364.335 1068.41 360.613L1068.25 360.468L1068.1 360.32C1064.5 356.904 1058.34 354.08 1047.2 354.08C1038.94 354.08 1032.8 355.869 1028.09 358.741C1023.4 361.601 1019.14 366.14 1015.59 373.235L1015.56 373.293L1015.53 373.351C1010.89 382.447 1007.26 395.725 1005.07 413.698C1008.24 411.75 1011.54 409.938 1014.98 408.26L1015.05 408.226L1015.12 408.194C1033.11 399.629 1052.65 395.44 1073.52 395.44C1113.77 395.44 1147.49 408.323 1172.98 435.082C1199 461.993 1211.04 498.712 1211.04 543.04C1211.04 572.483 1204.98 599.059 1192.34 622.281C1179.98 645.667 1161.64 663.915 1137.77 676.907C1114.07 690.016 1086.48 696.24 1055.6 696.24C994.801 696.24 948.52 677.089 922.189 634.96L922.17 634.928L922.15 634.897C897.52 595.078 886.157 539.757 886.157 470.8C886.157 398.667 898.011 342.137 924.236 303.84L924.246 303.825L924.257 303.809C951.863 263.694 995.573 244.8 1051.68 244.8C1081.71 244.8 1108.15 250.795 1130.19 263.715C1151.89 275.851 1168.67 292.26 1179.93 312.987C1191.13 332.937 1197.72 354.71 1199.78 378.122L1201.3 395.52H1081.89ZM1165.92 320.72C1156.21 302.8 1141.65 288.426 1122.24 277.6C1103.2 266.4 1079.68 260.8 1051.68 260.8C999.411 260.8 961.331 278.16 937.437 312.88C913.917 347.227 902.157 399.867 902.157 470.8C902.157 538.373 913.357 590.267 935.757 626.48C958.157 662.32 998.104 680.24 1055.6 680.24C1084.34 680.24 1109.17 674.453 1130.08 662.88C1151.36 651.306 1167.41 635.253 1178.24 614.72C1189.44 594.186 1195.04 570.293 1195.04 543.04C1195.04 501.6 1183.84 469.306 1161.44 446.16C1139.41 423.013 1110.1 411.44 1073.52 411.44C1054.85 411.44 1037.68 415.173 1022 422.64C1015.03 426.041 1008.79 430.023 1003.29 434.585C996.714 440.04 991.19 446.325 986.717 453.44C986.805 444.043 987.141 435.246 987.725 427.048C989.622 400.393 994.14 380.07 1001.28 366.08C1010.61 347.413 1025.92 338.08 1047.2 338.08C1061.01 338.08 1071.65 341.626 1079.12 348.72C1086.58 355.44 1091.81 365.706 1094.8 379.52H1183.84C1183.36 374.077 1182.61 368.743 1181.6 363.52C1178.65 348.323 1173.42 334.056 1165.92 320.72ZM1020.91 513.524L1020.89 513.535C1014.66 519.097 1010.56 527.696 1010.56 541.92C1010.56 556.825 1014.5 566.384 1020.54 572.713C1026.83 578.946 1036.46 583.04 1051.68 583.04C1064.78 583.04 1073.11 579.29 1078.78 573.39L1078.79 573.382C1085.01 566.929 1088.88 557.628 1088.88 543.6C1088.88 528.925 1085.04 519.4 1079.14 513.03C1073.62 507.073 1064.96 503.04 1050.56 503.04C1038 503.04 1028.5 506.719 1020.92 513.513L1020.91 513.524ZM1010.24 501.6C1021.06 491.893 1034.5 487.04 1050.56 487.04C1068.1 487.04 1081.54 492.08 1090.88 502.16C1100.21 512.24 1104.88 526.053 1104.88 543.6C1104.88 560.773 1100.02 574.4 1090.32 584.48C1080.98 594.186 1068.1 599.04 1051.68 599.04C1033.38 599.04 1019.2 594 1009.12 583.92C999.411 573.84 994.557 559.84 994.557 541.92C994.557 524.373 999.784 510.933 1010.24 501.6Z" fill="white"/>
<path fill-rule="evenodd" clip-rule="evenodd" d="M-294.721 -281.015L-294.721 -281.015C-347.203 -270.945 -405.174 -226.306 -446.41 -148.961C-487.536 -71.823 -511.635 37.2916 -496.52 174.656C-481.391 312.162 -440.835 399.625 -404.089 452.795C-369.612 502.683 -338.319 522.68 -333.412 525.815C-333.097 526.017 -332.89 526.149 -332.799 526.214L-330.77 527.676C-241.021 592.305 -122.568 677.604 15.4744 637.367C84.7251 617.181 149.354 555.466 197.478 496.912C221.397 467.81 240.961 439.835 254.687 418.84C261.547 408.347 266.939 399.612 270.677 393.37C272.546 390.248 273.999 387.756 275.012 385.985C275.998 384.261 276.455 383.415 276.528 383.278L276.539 383.258C297.534 339.715 284.566 286.387 261.422 226.079C255.091 209.582 248.294 193.248 241.385 176.649C235.573 162.686 229.684 148.535 223.927 133.939C211.575 102.617 200.463 70.6987 194.379 39.1152C168.739 -93.9896 143.503 -201.739 54.6346 -269.088C10.988 -302.166 -47.18 -311.002 -109.694 -308.432C-165.388 -306.143 -223.321 -294.88 -275.808 -284.676C-282.198 -283.434 -288.506 -282.208 -294.721 -281.015ZM-338.088 532.306C-348.391 525.708 -474.853 444.727 -504.472 175.531C-535.002 -101.935 -407.35 -267.551 -296.229 -288.872C-290.032 -290.061 -283.728 -291.287 -277.333 -292.53C-166.115 -314.158 -27.2287 -341.166 59.4666 -275.464C151.147 -205.983 176.694 -94.9853 202.235 37.602C210.88 82.4812 230.008 128.467 248.673 173.338C281.332 251.851 312.57 326.949 283.745 386.733C281.457 391.48 161.147 603.237 17.7131 645.047C-124.102 686.384 -245.438 598.994 -334.438 534.893C-335.454 534.161 -336.466 533.432 -337.474 532.707C-337.565 532.641 -337.772 532.508 -338.088 532.306Z" fill="#AEBFFF"/>
</g>
<defs>
<clipPath id="clip0">
<path d="M0 0H1344V759H0V0Z" fill="white"/>
</clipPath>
</defs>
</svg>
